icons/award.svg

<svg xmlns="http://www.w3.org/2000/svg" viewBox="0 0 24 24" fill="currentColor">
  <path d="M5.33423 10.3955c0-3.71421 3.03578-6.74999 6.74997-6.74999 3.7142 0 6.75 3.03578 6.75 6.74999 0 1.366-.4542 2.606-1.1215 3.6094-.7859 1.2316-2.021 2.2475-3.4996 2.7048-.6758.2244-1.3537.3358-2.1289.3358-.8667 0-1.6746-.1089-2.49542-.4606-.38073-.1632-.55709-.6041-.39392-.9848.16316-.3808.60407-.5571.98484-.394.5791.2483 1.1712.3394 1.9045.3394.6217 0 1.1414-.0877 1.6628-.2615l.0083-.0028.0083-.0025c1.115-.3431 2.075-1.1228 2.6879-2.0859l.0043-.0067.0044-.0066c.5303-.7955.874-1.753.874-2.784 0-2.88578-2.3642-5.24999-5.25-5.24999-2.88576 0-5.24997 2.36421-5.24997 5.24999 0 .9577.25986 1.8334.7056 2.6358.20116.3621.07071.8187-.29138 1.0198-.36209.2012-.81869.0707-1.01985-.2914-.55426-.9976-.89437-2.1219-.89437-3.3642Z"/>
  <path d="m7.28983 12.2296.46529.9306c.39779.7956 1.33268 1.591 2.41758 2.0431l1.0338.4307-.7167.7167c-.0122.0366-.0342.1004-.0634.1646-.0362.0797-.0999.1988-.2118.3106l-3.20001 3.2c-.34559.3456-.78433.2759-.99636.1911-.12106-.0485-.24585-.1262-.35075-.2392-.09914-.1068-.23321-.3054-.23321-.5822v-1.55H3.88428c-.32917 0-.7312-.171-.89637-.584-.08673-.2169-.0871-.4695.02239-.6994.07554-.1586.18729-.2743.30302-.3563l3.97651-3.9763Zm1.46121 3.9386-1.81677 1.8167v-1.6393H5.29495l1.67042-1.6704c.47861.5869 1.10563 1.0979 1.78567 1.493Zm-2.79711 2.7971c-.00016.0001.00016-.0002 0 0Z"/>
  <path d="M16.6539 13.0651c.2929-.2929.7677-.2929 1.0606 0l3.1001 3.1c.3456.3457.2758.7845.1909.9965-.0484.1211-.1262.2458-.2391.3507-.1068.0991-.3054.2332-.5822.2332h-1.65v1.65c0 .3292-.1711.7312-.584.8963-.2169.0868-.4695.0872-.6994-.0223-.1586-.0756-.2743-.1873-.3563-.3031l-3.1406-3.1406-.2-.2c-.2929-.2929-.2929-.7678 0-1.0607.2929-.2929.7678-.2929 1.0607 0l2.4196 2.4197v-1.7393h1.7394l-2.1197-2.1197c-.2929-.2929-.2929-.7678 0-1.0607Z"/>
  <path d="M12.1843 8.14551c-1.2426 0-2.24997 1.00736-2.24997 2.24999 0 1.2426 1.00737 2.25 2.24997 2.25 1.2427 0 2.25-1.0074 2.25-2.25 0-1.24263-1.0073-2.24999-2.25-2.24999ZM8.43433 10.3955c0-2.07106 1.67897-3.74999 3.74997-3.74999 2.0711 0 3.75 1.67893 3.75 3.74999 0 2.0711-1.6789 3.75-3.75 3.75-2.071 0-3.74997-1.6789-3.74997-3.75Z"/>
</svg>

<svg width="24" height="24" viewBox="0 0 24 24" fill="none" xmlns="http://www.w3.org/2000/svg">
<path fill-rule="evenodd" clip-rule="evenodd" d="M5.33423 10.3955C5.33423 6.68129 8.37001 3.64551 12.0842 3.64551C15.7984 3.64551 18.8342 6.68129 18.8342 10.3955C18.8342 11.7615 18.38 13.0015 17.7127 14.0049C16.9268 15.2365 15.6917 16.2524 14.2131 16.7097C13.5373 16.9341 12.8594 17.0455 12.0842 17.0455C11.2175 17.0455 10.4096 16.9366 9.58878 16.5849C9.20805 16.4217 9.03169 15.9808 9.19486 15.6001C9.35802 15.2193 9.79893 15.043 10.1797 15.2061C10.7588 15.4544 11.3509 15.5455 12.0842 15.5455C12.7059 15.5455 13.2256 15.4578 13.747 15.284L13.7553 15.2812L13.7636 15.2787C14.8786 14.9356 15.8386 14.1559 16.4515 13.1928L16.4558 13.1861L16.4602 13.1795C16.9905 12.384 17.3342 11.4265 17.3342 10.3955C17.3342 7.50972 14.97 5.14551 12.0842 5.14551C9.19844 5.14551 6.83423 7.50972 6.83423 10.3955C6.83423 11.3532 7.09409 12.2289 7.53983 13.0313C7.74099 13.3934 7.61054 13.85 7.24845 14.0511C6.88636 14.2523 6.42976 14.1218 6.2286 13.7597C5.67434 12.7621 5.33423 11.6378 5.33423 10.3955Z" fill="black"/>
<path fill-rule="evenodd" clip-rule="evenodd" d="M7.28983 12.2296L7.75512 13.1602C8.15291 13.9558 9.0878 14.7512 10.1727 15.2033L11.2065 15.634L10.4898 16.3507C10.4776 16.3873 10.4556 16.4511 10.4264 16.5153C10.3902 16.595 10.3265 16.7141 10.2146 16.8259L7.01459 20.0259C6.669 20.3715 6.23026 20.3018 6.01823 20.217C5.89717 20.1685 5.77238 20.0908 5.66748 19.9778C5.56834 19.871 5.43427 19.6724 5.43427 19.3956V17.8456H3.88428C3.55511 17.8456 3.15308 17.6746 2.98791 17.2616C2.90118 17.0447 2.90081 16.7921 3.0103 16.5622C3.08584 16.4036 3.19759 16.2879 3.31332 16.2059L7.28983 12.2296ZM8.75104 16.1682L6.93427 17.9849V16.3456H5.29495L6.96537 14.6752C7.44398 15.2621 8.071 15.7731 8.75104 16.1682ZM5.95393 18.9653C5.95377 18.9654 5.95409 18.9651 5.95393 18.9653Z" fill="black"/>
<path fill-rule="evenodd" clip-rule="evenodd" d="M16.6539 13.0651C16.9468 12.7722 17.4216 12.7722 17.7145 13.0651L20.8146 16.1651C21.1602 16.5108 21.0904 16.9496 21.0055 17.1616C20.9571 17.2827 20.8793 17.4074 20.7664 17.5123C20.6596 17.6114 20.461 17.7455 20.1842 17.7455H18.5342V19.3955C18.5342 19.7247 18.3631 20.1267 17.9502 20.2918C17.7333 20.3786 17.4807 20.379 17.2508 20.2695C17.0922 20.1939 16.9765 20.0822 16.8945 19.9664L13.7539 16.8258L13.5539 16.6258C13.261 16.3329 13.261 15.858 13.5539 15.5651C13.8468 15.2722 14.3217 15.2722 14.6146 15.5651L17.0342 17.9848V16.2455H18.7736L16.6539 14.1258C16.361 13.8329 16.361 13.358 16.6539 13.0651Z" fill="black"/>
<path fill-rule="evenodd" clip-rule="evenodd" d="M12.1843 8.14551C10.9417 8.14551 9.93433 9.15287 9.93433 10.3955C9.93433 11.6381 10.9417 12.6455 12.1843 12.6455C13.427 12.6455 14.4343 11.6381 14.4343 10.3955C14.4343 9.15287 13.427 8.14551 12.1843 8.14551ZM8.43433 10.3955C8.43433 8.32444 10.1133 6.64551 12.1843 6.64551C14.2554 6.64551 15.9343 8.32444 15.9343 10.3955C15.9343 12.4666 14.2554 14.1455 12.1843 14.1455C10.1133 14.1455 8.43433 12.4666 8.43433 10.3955Z" fill="black"/>
</svg>
